X: 10329
T: Dominick Street
R: hornpipe
M: 4/4
K: Dmajor
|:DEFD GABc|defe dABc|d2AB ABAE|F2E2 E4|
DEFD GABc|defe dABc|d2A2 GFEG|F2E2 D4:|
|:B4 A4|GFE2 F4|EFEC A,CEF|EFGA BdcA|
B4 A4|GFE2 F4|E3F EFGF|E2D2 D4:|

